SVG_Azure_All/Logic App.svg

<?xml version="1.0" encoding="UTF-8" standalone="no"?>
<!-- Generated by Microsoft Visio, SVG Export Logic App.svg Page-1 -->

<svg
   xmlns:dc="http://purl.org/dc/elements/1.1/"
   xmlns:cc="http://creativecommons.org/ns#"
   xmlns:rdf="http://www.w3.org/1999/02/22-rdf-syntax-ns#"
   xmlns:svg="http://www.w3.org/2000/svg"
   xmlns="http://www.w3.org/2000/svg"
   xmlns:sodipodi="http://sodipodi.sourceforge.net/DTD/sodipodi-0.dtd"
   xmlns:inkscape="http://www.inkscape.org/namespaces/inkscape"
   width="0.78701115in"
   height="0.78766114in"
   viewBox="0 0 56.665 56.711412"
   xml:space="preserve"
   class="st5"
   version="1.1"
   id="svg50"
   sodipodi:docname="Logic App.svg"
   style="font-size:12px;overflow:visible;color-interpolation-filters:sRGB;fill:none;fill-rule:evenodd;stroke-linecap:square;stroke-miterlimit:3"
   inkscape:version="0.92.5 (2060ec1f9f, 2020-04-08)"><metadata
   id="metadata54"><rdf:RDF><cc:Work
       rdf:about=""><dc:format>image/svg+xml</dc:format><dc:type
         rdf:resource="http://purl.org/dc/dcmitype/StillImage" /></cc:Work></rdf:RDF></metadata><sodipodi:namedview
   pagecolor="#ffffff"
   bordercolor="#666666"
   borderopacity="1"
   objecttolerance="10"
   gridtolerance="10"
   guidetolerance="10"
   inkscape:pageopacity="0"
   inkscape:pageshadow="2"
   inkscape:window-width="640"
   inkscape:window-height="480"
   id="namedview52"
   showgrid="false"
   inkscape:zoom="1.4723204"
   inkscape:cx="37.780137"
   inkscape:cy="34.82321"
   inkscape:window-x="0"
   inkscape:window-y="0"
   inkscape:window-maximized="0"
   inkscape:current-layer="svg50" />
	<style
   type="text/css"
   id="style2">
	<![CDATA[
		.st1 {fill:#0078d4;stroke:none;stroke-linecap:butt;stroke-width:29.5098}
		.st2 {fill:url(#grad0-8);stroke:none;stroke-linecap:butt;stroke-width:29.5098}
		.st3 {fill:url(#grad0-12);stroke:none;stroke-linecap:butt;stroke-width:29.5098}
		.st4 {fill:url(#grad0-16);stroke:none;stroke-linecap:butt;stroke-width:29.5098}
		.st5 {fill:none;fill-rule:evenodd;font-size:12px;overflow:visible;stroke-linecap:square;stroke-miterlimit:3}
	]]>
	</style>

	<defs
   id="Patterns_And_Gradients">
		<linearGradient
   id="grad0-8"
   x1="-8.6512804e-07"
   y1="99.136704"
   x2="21.224985"
   y2="99.136704"
   gradientTransform="scale(1.0011786,0.9988228)"
   gradientUnits="userSpaceOnUse">
			<stop
   offset="0"
   stop-color="#9cebff"
   stop-opacity="1"
   id="stop4" />
			<stop
   offset="1"
   stop-color="#50e6ff"
   stop-opacity="1"
   id="stop6" />
		</linearGradient>
		<linearGradient
   id="grad0-12"
   x1="-8.6512804e-07"
   y1="99.136704"
   x2="21.224985"
   y2="99.136704"
   gradientTransform="scale(1.0011786,0.9988228)"
   gradientUnits="userSpaceOnUse">
			<stop
   offset="0"
   stop-color="#b4ec36"
   stop-opacity="1"
   id="stop9" />
			<stop
   offset="1"
   stop-color="#86d633"
   stop-opacity="1"
   id="stop11" />
		</linearGradient>
		<linearGradient
   id="grad0-16"
   x1="-8.6512804e-07"
   y1="99.136704"
   x2="21.224985"
   y2="99.136704"
   gradientTransform="scale(1.0011786,0.9988228)"
   gradientUnits="userSpaceOnUse">
			<stop
   offset="0"
   stop-color="#b4ec36"
   stop-opacity="1"
   id="stop14" />
			<stop
   offset="1"
   stop-color="#86d633"
   stop-opacity="1"
   id="stop16" />
		</linearGradient>
	</defs>
	<g
   id="g48"
   transform="translate(-29.509799,-29.51511)">
		<title
   id="title20">Page-1</title>
		<g
   id="group3350-1"
   transform="translate(29.5098,-34.0157)">
			<title
   id="title22">Logic App</title>
			<g
   id="group3351-2">
				<title
   id="title24">layer1</title>
				<g
   id="shape3352-3"
   transform="translate(9.28775,-17.0802)">
					<title
   id="title26">path2</title>
					<path
   d="m 34.34,109.1 h -9.18 a 4.78085,4.7705 0 0 1 -4.78,-4.77 V 94.28 h -2.65 v 10.05 a 4.78085,4.7705 0 0 1 -4.78,4.77 H 3.78 A 3.77932,3.77115 -180 0 0 0,112.87 v 7.35 h 2.65 v -7.36 a 1.11805,1.11563 0 0 1 1.12,-1.11 h 9.18 a 7.41062,7.39459 -180 0 0 5.48,-2.41 0.875544,0.873649 0 0 1 1.28497,0 7.41062,7.39459 -180 0 0 5.46503,2.41 h 9.17 a 1.1149,1.11249 0 0 1 1.12,1.11 v 7.35 h 2.64 v -7.35 a 3.77932,3.77115 -180 0 0 -3.78,-3.76 z"
   class="st1"
   id="path28"
   inkscape:connector-curvature="0"
   style="fill:#0078d4;stroke:none;stroke-width:29.50979996;stroke-linecap:butt" />
				</g>
				<g
   id="shape3353-5"
   transform="translate(17.7189,-35.4896)">
					<title
   id="title31">rect4</title>
					<path
   d="m 0,118.32 a 1.9023,1.89819 -180 0 0 1.9,1.9 h 17.45 a 1.9023,1.89819 -180 0 0 1.9,-1.9 v -17.41 a 1.9023,1.89819 -180 0 0 -1.9,-1.89 H 1.9 A 1.9023,1.89819 -180 0 0 0,100.91 Z"
   class="st2"
   id="path33"
   inkscape:connector-curvature="0"
   style="fill:url(#grad0-8);stroke:none;stroke-width:29.50979996;stroke-linecap:butt" />
				</g>
				<g
   id="shape3354-9">
					<title
   id="title36">rect6</title>
					<path
   d="m 0,118.32 a 1.9023,1.89819 -180 0 0 1.9,1.9 h 17.45 a 1.9023,1.89819 -180 0 0 1.9,-1.9 v -17.41 a 1.9023,1.89819 -180 0 0 -1.9,-1.89 H 1.9 A 1.9023,1.89819 -180 0 0 0,100.91 Z"
   class="st3"
   id="path38"
   inkscape:connector-curvature="0"
   style="fill:url(#grad0-12);stroke:none;stroke-width:29.50979996;stroke-linecap:butt" />
				</g>
				<g
   id="shape3355-13"
   transform="rotate(90,28.3464,127.3386)">
					<title
   id="title41">rect8</title>
					<path
   d="m 0,118.32 a 1.9023,1.89819 -180 0 0 1.9,1.9 h 17.45 a 1.9023,1.89819 -180 0 0 1.9,-1.9 v -17.41 a 1.9023,1.89819 -180 0 0 -1.9,-1.89 H 1.9 A 1.9023,1.89819 -180 0 0 0,100.91 Z"
   class="st4"
   id="path43"
   inkscape:connector-curvature="0"
   style="fill:url(#grad0-16);stroke:none;stroke-width:29.50979996;stroke-linecap:butt" />
				</g>
			</g>
		</g>
	</g>
</svg>

<?xml version="1.0" encoding="UTF-8" standalone="no"?>
<!DOCTYPE svg PUBLIC "-//W3C//DTD SVG 1.1//EN" "http://www.w3.org/Graphics/SVG/1.1/DTD/svg11.dtd">
<!-- Generated by Microsoft Visio, SVG Export Logic App.svg Page-1 -->
<svg xmlns="http://www.w3.org/2000/svg" xmlns:xlink="http://www.w3.org/1999/xlink" xmlns:ev="http://www.w3.org/2001/xml-events"
		width="1.6068in" height="1.6697in" viewBox="0 0 115.69 120.218" xml:space="preserve" color-interpolation-filters="sRGB"
		class="st5">
	<style type="text/css">
	<![CDATA[
		.st1 {fill:#0078d4;stroke:none;stroke-linecap:butt;stroke-width:29.5098}
		.st2 {fill:url(#grad0-8);stroke:none;stroke-linecap:butt;stroke-width:29.5098}
		.st3 {fill:url(#grad0-12);stroke:none;stroke-linecap:butt;stroke-width:29.5098}
		.st4 {fill:url(#grad0-16);stroke:none;stroke-linecap:butt;stroke-width:29.5098}
		.st5 {fill:none;fill-rule:evenodd;font-size:12px;overflow:visible;stroke-linecap:square;stroke-miterlimit:3}
	]]>
	</style>

	<defs id="Patterns_And_Gradients">
		<linearGradient id="grad0-8" x1="0" y1="0" x2="1" y2="0" gradientTransform="rotate(90 0.5 0.5)">
			<stop offset="0" stop-color="#9cebff" stop-opacity="1"/>
			<stop offset="1" stop-color="#50e6ff" stop-opacity="1"/>
		</linearGradient>
		<linearGradient id="grad0-12" x1="0" y1="0" x2="1" y2="0" gradientTransform="rotate(90 0.5 0.5)">
			<stop offset="0" stop-color="#b4ec36" stop-opacity="1"/>
			<stop offset="1" stop-color="#86d633" stop-opacity="1"/>
		</linearGradient>
		<linearGradient id="grad0-16" x1="0" y1="0" x2="1" y2="0" gradientTransform="rotate(0 0.5 0.5)">
			<stop offset="0" stop-color="#b4ec36" stop-opacity="1"/>
			<stop offset="1" stop-color="#86d633" stop-opacity="1"/>
		</linearGradient>
	</defs>
	<g>
		<title>Page-1</title>
		<g id="group3298-1" transform="translate(29.5098,-34.0157)">
			<title>Logic App</title>
			<g id="group3299-2">
				<title>layer1</title>
				<g id="shape3300-3" transform="translate(9.28775,-17.0802)">
					<title>path2</title>
					<path d="M34.34 109.1 L25.16 109.1 A4.78085 4.7705 0 0 1 20.38 104.33 L20.38 94.28 L17.73 94.28 L17.73 104.33
								 A4.78085 4.7705 0 0 1 12.95 109.1 L3.78 109.1 A3.77932 3.77115 -180 0 0 0 112.87 L0 120.22 L2.65
								 120.22 L2.65 112.86 A1.11805 1.11563 0 0 1 3.77 111.75 L12.95 111.75 A7.41062 7.39459 -180 0 0 18.43
								 109.34 a0.875544 0.873649 0 0 1 1.28497 -1.42109E-14 A7.41062 7.39459 -180 0 0 25.18 111.75 L34.35
								 111.75 A1.1149 1.11249 0 0 1 35.47 112.86 L35.47 120.21 L38.11 120.21 L38.11 112.86 A3.77932 3.77115
								 -180 0 0 34.33 109.1 L34.34 109.1 Z" class="st1"/>
				</g>
				<g id="shape3301-5" transform="translate(17.7189,-35.4896)">
					<title>rect4</title>
					<path d="M0 118.32 A1.9023 1.89819 -180 0 0 1.9 120.22 L19.35 120.22 A1.9023 1.89819 -180 0 0 21.25 118.32 L21.25
								 100.91 A1.9023 1.89819 -180 0 0 19.35 99.02 L1.9 99.02 A1.9023 1.89819 -180 0 0 0 100.91 L0 118.32
								 Z" class="st2"/>
				</g>
				<g id="shape3302-9">
					<title>rect6</title>
					<path d="M0 118.32 A1.9023 1.89819 -180 0 0 1.9 120.22 L19.35 120.22 A1.9023 1.89819 -180 0 0 21.25 118.32 L21.25
								 100.91 A1.9023 1.89819 -180 0 0 19.35 99.02 L1.9 99.02 A1.9023 1.89819 -180 0 0 0 100.91 L0 118.32
								 Z" class="st3"/>
				</g>
				<g id="shape3303-13" transform="translate(155.685,98.9922) rotate(90)">
					<title>rect8</title>
					<path d="M0 118.32 A1.9023 1.89819 -180 0 0 1.9 120.22 L19.35 120.22 A1.9023 1.89819 -180 0 0 21.25 118.32 L21.25
								 100.91 A1.9023 1.89819 -180 0 0 19.35 99.02 L1.9 99.02 A1.9023 1.89819 -180 0 0 0 100.91 L0 118.32
								 Z" class="st4"/>
				</g>
			</g>
		</g>
	</g>
</svg>
